;START_OF_HEADER
;HEADER_VERSION:0.1
;FLAVOR:Griffin
;GENERATOR.NAME:Cura_SteamEngine
;GENERATOR.VERSION:5.9.1
;GENERATOR.BUILD_DATE:2025-02-18
;TARGET_MACHINE.NAME:Ultimaker 3
;EXTRUDER_TRAIN.1.INITIAL_TEMPERATURE:240
;EXTRUDER_TRAIN.1.MATERIAL.VOLUME_USED:8048
;EXTRUDER_TRAIN.1.MATERIAL.GUID:8b75b775-d3f2-4d0f-8fb2-2a3dd53cf673
;EXTRUDER_TRAIN.1.NOZZLE.DIAMETER:0.4
;EXTRUDER_TRAIN.1.NOZZLE.NAME:AA 0.4
;BUILD_PLATE.INITIAL_TEMPERATURE:80
;PRINT.TIME:2875
;PRINT.GROUPS:1
;PRINT.SIZE.MIN.X:79.92
;PRINT.SIZE.MIN.Y:6
;PRINT.SIZE.MIN.Z:0.2
;PRINT.SIZE.MAX.X:204
;PRINT.SIZE.MAX.Y:129.385
;PRINT.SIZE.MAX.Z:25
;SLICE_UUID:0a488906-6d89-4912-b32d-dafe79efed18
;END_OF_HEADER
;Generated with Cura_SteamEngine 5.9.1
T1
M82 ;absolute extrusion mode

G92 E0
M190 S80
M104 S240
M109 S240
G0 F15000 X204 Y6 Z2
G280
G1 F1500 E-6.5
;LAYER_COUNT:125
;LAYER:0
M106 S12.8
M204 S1000
M205 X20 Y20
G0 F15000 X114.481 Y129.23 Z0.2
;TYPE:SKIRT
G1 F1500 E0
G1 F1800 X113.987 Y129.338 E0.00634
G1 X113.24 Y129.384 E0.01573
G1 X84.181 Y129.385 E0.38014
G1 X83.483 Y129.376 E0.38889
G1 X82.885 Y129.317 E0.39643
G1 X82.335 Y129.171 E0.40356
G1 X81.815 Y128.94 E0.4107
G1 X81.339 Y128.632 E0.41781
G1 X80.916 Y128.251 E0.42495
G1 X80.559 Y127.808 E0.43208
G1 X80.276 Y127.316 E0.4392
G1 X80.074 Y126.784 E0.44634
G1 X79.921 Y126.077 E0.45541
G1 X79.92 Y89.841 E0.90982
G1 X79.929 Y89.176 E0.91816
G1 X79.989 Y88.577 E0.92571
G1 X80.135 Y88.029 E0.93282
G1 X80.365 Y87.51 E0.93994
G1 X80.675 Y87.032 E0.94708
G1 X81.055 Y86.61 E0.95421
G1 X81.498 Y86.253 E0.96134
G1 X81.991 Y85.97 E0.96847
G1 X82.462 Y85.786 E0.97481
G1 X83.231 Y85.616 E0.98469
G1 X112.825 Y85.615 E1.35581
G1 X113.523 Y85.625 E1.36456
G1 X114.12 Y85.685 E1.37209
G1 X114.67 Y85.831 E1.37922
G1 X115.134 Y86.033 E1.38557
G1 X115.615 Y86.335 E1.39269
G1 X116.088 Y86.754 E1.40061
G1 X116.443 Y87.196 E1.40772
G1 X116.726 Y87.69 E1.41486
G1 X116.927 Y88.221 E1.42198
G1 X117.042 Y88.778 E1.42912
G1 X117.079 Y89.455 E1.43762
G1 X117.08 Y125.094 E1.88454
G1 X117.071 Y125.821 E1.89366
G1 X117.013 Y126.418 E1.90118
G1 X116.867 Y126.968 E1.90832
G1 X116.637 Y127.487 E1.91544
G1 X116.328 Y127.965 E1.92258
G1 X115.947 Y128.388 E1.92972
G1 X115.506 Y128.745 E1.93683
G1 X115.012 Y129.029 E1.94398
G1 X114.481 Y129.23 E1.9511
G0 F15000 X114.396 Y128.839
G1 F1800 X113.902 Y128.947 E1.95744
G1 X113.24 Y128.984 E1.96575
G1 X84.186 Y128.985 E2.3301
G1 X83.488 Y128.976 E2.33885
G1 X82.984 Y128.929 E2.3452
G1 X82.494 Y128.804 E2.35154
G1 X82.03 Y128.603 E2.35788
G1 X81.604 Y128.332 E2.36422
G1 X81.225 Y127.997 E2.37056
G1 X80.904 Y127.606 E2.3769
G1 X80.649 Y127.17 E2.38324
G1 X80.465 Y126.699 E2.38958
G1 X80.321 Y126.034 E2.39811
G1 X80.32 Y89.846 E2.85192
G1 X80.329 Y89.181 E2.86026
G1 X80.376 Y88.677 E2.86661
G1 X80.502 Y88.188 E2.87294
G1 X80.703 Y87.724 E2.87928
G1 X80.974 Y87.297 E2.88563
G1 X81.309 Y86.919 E2.89196
G1 X81.7 Y86.598 E2.8983
G1 X82.137 Y86.343 E2.90465
G1 X82.608 Y86.159 E2.91099
G1 X83.274 Y86.016 E2.91953
G1 X112.819 Y86.015 E3.29004
G1 X113.517 Y86.025 E3.29879
G1 X114.02 Y86.072 E3.30513
G1 X114.51 Y86.198 E3.31147
G1 X114.974 Y86.4 E3.31782
G1 X115.4 Y86.672 E3.32416
G1 X115.778 Y87.007 E3.33049
G1 X116.098 Y87.398 E3.33683
G1 X116.353 Y87.835 E3.34317
G1 X116.536 Y88.306 E3.34951
G1 X116.643 Y88.8 E3.35585
G1 X116.679 Y89.455 E3.36407
G1 X116.68 Y125.089 E3.81094
G1 X116.671 Y125.816 E3.82005
G1 X116.625 Y126.319 E3.82639
G1 X116.5 Y126.809 E3.83273
G1 X116.299 Y127.273 E3.83907
G1 X116.028 Y127.7 E3.84541
G1 X115.693 Y128.079 E3.85176
G1 X115.303 Y128.4 E3.85809
G1 X114.867 Y128.656 E3.86443
G1 X114.396 Y128.839 E3.87077
M204 S429
G1 F1500 E-2.62923
;MESH:double_fingertip_enlarged_by_1_mm_xz(1).stl
G0 F15000 X113.08 Y126.375
G0 X113.08 Y125.384
;TYPE:WALL-OUTER
G1 F1500 E3.87077
G1 F1800 X113.08 Y89.612 E4.36422
G1 X83.92 Y89.612 E4.76647
G1 X83.92 Y125.384 E5.25992
G1 X113.08 Y125.384 E5.66216
M204 S1000
G0 F15000 X113.08 Y125.184
G0 X112.68 Y124.984
;TYPE:WALL-INNER
G1 F1800 X112.68 Y90.012 E6.0788
G1 X84.32 Y90.012 E6.41666
G1 X84.32 Y124.984 E6.83329
G1 X112.68 Y124.984 E7.17116
G0 F15000 X112.36 Y124.664
;TYPE:SKIN
G1 F1800 X112.36 Y90.332 E7.55972
G1 X84.64 Y90.332 E7.87344
G1 X84.64 Y124.664 E8.262
G1 X112.36 Y124.664 E8.57573
G1 F1500 E2.07573
G0 F15000 X112.36 Y126.375
G0 X84.967 Y126.375
G0 X84.967 Y124.464
G1 F1500 E8.57573
G1 F1800 X84.84 Y124.336 E8.57777
G0 F15000 X84.84 Y123.771
G1 F1800 X85.533 Y124.464 E8.58886
G0 F15000 X86.099 Y124.464
G1 F1800 X84.84 Y123.205 E8.60901
G0 F15000 X84.84 Y122.639
G1 F1800 X86.665 Y124.464 E8.63822
G0 F15000 X87.23 Y124.464
G1 F1800 X84.84 Y122.074 E8.67647
G0 F15000 X84.84 Y121.508
G1 F1800 X87.796 Y124.464 E8.72379
G0 F15000 X88.362 Y124.464
G1 F1800 X84.84 Y120.942 E8.78016
G0 F15000 X84.84 Y120.376
G1 F1800 X88.927 Y124.464 E8.84558
G0 F15000 X89.493 Y124.464
G1 F1800 X84.84 Y119.811 E8.92006
G0 F15000 X84.84 Y119.245
G1 F1800 X90.059 Y124.464 E9.00359
G0 F15000 X90.624 Y124.464
G1 F1800 X84.84 Y118.679 E9.09617
G0 F15000 X84.84 Y118.114
G1 F1800 X91.19 Y124.464 E9.19781
G0 F15000 X91.756 Y124.464
G1 F1800 X84.84 Y117.548 E9.3085
G0 F15000 X84.84 Y116.982
G1 F1800 X92.321 Y124.464 E9.42825
G0 F15000 X92.887 Y124.464
G1 F1800 X84.84 Y116.417 E9.55705
G0 F15000 X84.84 Y115.851
G1 F1800 X93.453 Y124.464 E9.6949
G0 F15000 X94.018 Y124.464
G1 F1800 X84.84 Y115.285 E9.84181
G0 F15000 X84.84 Y114.72
G1 F1800 X94.584 Y124.464 E9.99777
G0 F15000 X95.15 Y124.464
G1 F1800 X84.84 Y114.154 E10.16279
G0 F15000 X84.84 Y113.588
G1 F1800 X95.715 Y124.464 E10.33686
G0 F15000 X96.281 Y124.464
G1 F1800 X84.84 Y113.023 E10.51998
G0 F15000 X84.84 Y112.457
G1 F1800 X96.847 Y124.464 E10.71216
G0 F15000 X97.413 Y124.464
G1 F1800 X84.84 Y111.891 E10.9134
G0 F15000 X84.84 Y111.325
G1 F1800 X97.978 Y124.464 E11.12369
G0 F15000 X98.544 Y124.464
G1 F1800 X84.84 Y110.76 E11.34303
G0 F15000 X84.84 Y110.194
G1 F1800 X99.11 Y124.464 E11.57143
G0 F15000 X99.675 Y124.464
G1 F1800 X84.84 Y109.628 E11.80888
G0 F15000 X84.84 Y109.063
G1 F1800 X100.241 Y124.464 E12.05538
G0 F15000 X100.807 Y124.464
G1 F1800 X84.84 Y108.497 E12.31094
G0 F15000 X84.84 Y107.931
G1 F1800 X101.372 Y124.464 E12.57556
G0 F15000 X101.938 Y124.464
G1 F1800 X84.84 Y107.366 E12.84922
G0 F15000 X84.84 Y106.8
G1 F1800 X102.504 Y124.464 E13.13194
G0 F15000 X103.069 Y124.464
G1 F1800 X84.84 Y106.234 E13.42372
G0 F15000 X84.84 Y105.669
G1 F1800 X103.635 Y124.464 E13.72454
G0 F15000 X104.201 Y124.464
G1 F1800 X84.84 Y105.103 E14.03443
G0 F15000 X84.84 Y104.537
G1 F1800 X104.766 Y124.464 E14.35337
G0 F15000 X105.332 Y124.464
G1 F1800 X84.84 Y103.972 E14.68135
G0 F15000 X84.84 Y103.406
G1 F1800 X105.898 Y124.464 E15.0184
G0 F15000 X106.464 Y124.464
G1 F1800 X84.84 Y102.84 E15.3645
G0 F15000 X84.84 Y102.275
G1 F1800 X107.029 Y124.464 E15.71965
G0 F15000 X107.595 Y124.464
G1 F1800 X84.84 Y101.709 E16.08386
G0 F15000 X84.84 Y101.143
G1 F1800 X108.161 Y124.464 E16.45713
G0 F15000 X108.726 Y124.464
G1 F1800 X84.84 Y100.577 E16.83945
G0 F15000 X84.84 Y100.012
G1 F1800 X109.292 Y124.464 E17.23082
G0 F15000 X109.858 Y124.464
G1 F1800 X84.84 Y99.446 E17.63125
G0 F15000 X84.84 Y98.88
G1 F1800 X110.423 Y124.464 E18.04072
G0 F15000 X110.989 Y124.464
G1 F1800 X84.84 Y98.315 E18.45926
G0 F15000 X84.84 Y97.749
G1 F1800 X111.555 Y124.464 E18.88685
G0 F15000 X112.12 Y124.464
G1 F1800 X84.84 Y97.183 E19.32349
G0 F15000 X84.84 Y96.618
G1 F1800 X112.16 Y123.937 E19.76075
G0 F15000 X112.16 Y123.372
G1 F1800 X84.84 Y96.052 E20.19803
G0 F15000 X84.84 Y95.486
G1 F1800 X112.16 Y122.806 E20.6353
G0 F15000 X112.16 Y122.24
G1 F1800 X84.84 Y94.921 E21.07257
G0 F15000 X84.84 Y94.355
G1 F1800 X112.16 Y121.675 E21.50984
G0 F15000 X112.16 Y121.109
G1 F1800 X84.84 Y93.789 E21.94711
G0 F15000 X84.84 Y93.224
G1 F1800 X112.16 Y120.543 E22.38438
G0 F15000 X112.16 Y119.978
G1 F1800 X84.84 Y92.658 E22.82165
G0 F15000 X84.84 Y92.092
G1 F1800 X112.16 Y119.412 E23.25893
G0 F15000 X112.16 Y118.846
G1 F1800 X84.84 Y91.526 E23.6962
G0 F15000 X84.84 Y90.961
G1 F1800 X112.16 Y118.281 E24.13347
G0 F15000 X112.16 Y117.715
G1 F1800 X84.977 Y90.532 E24.56855
G0 F15000 X85.543 Y90.532
G1 F1800 X112.16 Y117.149 E24.99458
G0 F15000 X112.16 Y116.584
G1 F1800 X86.109 Y90.532 E25.41155
G0 F15000 X86.674 Y90.532
G1 F1800 X112.16 Y116.018 E25.81947
G0 F15000 X112.16 Y115.452
G1 F1800 X87.24 Y90.532 E26.21833
G0 F15000 X87.806 Y90.532
G1 F1800 X112.16 Y114.886 E26.60813
G0 F15000 X112.16 Y114.321
G1 F1800 X88.371 Y90.532 E26.98888
G0 F15000 X88.937 Y90.532
G1 F1800 X112.16 Y113.755 E27.36058
G0 F15000 X112.16 Y113.189
G1 F1800 X89.503 Y90.532 E27.72322
G0 F15000 X90.069 Y90.532
G1 F1800 X112.16 Y112.624 E28.07681
G0 F15000 X112.16 Y112.058
G1 F1800 X90.634 Y90.532 E28.42135
G0 F15000 X91.2 Y90.532
G1 F1800 X112.16 Y111.492 E28.75683
G0 F15000 X112.16 Y110.927
G1 F1800 X91.766 Y90.532 E29.08325
G0 F15000 X92.331 Y90.532
G1 F1800 X112.16 Y110.361 E29.40063
G0 F15000 X112.16 Y109.795
G1 F1800 X92.897 Y90.532 E29.70894
G0 F15000 X93.463 Y90.532
G1 F1800 X112.16 Y109.23 E30.00821
G0 F15000 X112.16 Y108.664
G1 F1800 X94.028 Y90.532 E30.29842
G0 F15000 X94.594 Y90.532
G1 F1800 X112.16 Y108.098 E30.57958
G0 F15000 X112.16 Y107.533
G1 F1800 X95.16 Y90.532 E30.85168
G0 F15000 X95.725 Y90.532
G1 F1800 X112.16 Y106.967 E31.11473
G0 F15000 X112.16 Y106.401
G1 F1800 X96.291 Y90.532 E31.36873
G0 F15000 X96.857 Y90.532
G1 F1800 X112.16 Y105.836 E31.61367
G0 F15000 X112.16 Y105.27
G1 F1800 X97.422 Y90.532 E31.84956
G0 F15000 X97.988 Y90.532
G1 F1800 X112.16 Y104.704 E32.07639
G0 F15000 X112.16 Y104.138
G1 F1800 X98.554 Y90.532 E32.29416
G0 F15000 X99.12 Y90.532
G1 F1800 X112.16 Y103.573 E32.50289
G0 F15000 X112.16 Y103.007
G1 F1800 X99.685 Y90.532 E32.70256
G0 F15000 X100.251 Y90.532
G1 F1800 X112.16 Y102.441 E32.89317
G0 F15000 X112.16 Y101.876
G1 F1800 X100.817 Y90.532 E33.07473
G0 F15000 X101.382 Y90.532
G1 F1800 X112.16 Y101.31 E33.24724
G0 F15000 X112.16 Y100.744
G1 F1800 X101.948 Y90.532 E33.41069
G0 F15000 X102.514 Y90.532
G1 F1800 X112.16 Y100.179 E33.56508
G0 F15000 X112.16 Y99.613
G1 F1800 X103.079 Y90.532 E33.71043
G0 F15000 X103.645 Y90.532
G1 F1800 X112.16 Y99.047 E33.84672
G0 F15000 X112.16 Y98.482
G1 F1800 X104.211 Y90.532 E33.97395
G0 F15000 X104.776 Y90.532
G1 F1800 X112.16 Y97.916 E34.09214
G0 F15000 X112.16 Y97.35
G1 F1800 X105.342 Y90.532 E34.20127
G0 F15000 X105.908 Y90.532
G1 F1800 X112.16 Y96.785 E34.30134
G0 F15000 X112.16 Y96.219
G1 F1800 X106.473 Y90.532 E34.39237
G0 F15000 X107.039 Y90.532
G1 F1800 X112.16 Y95.653 E34.47433
G0 F15000 X112.16 Y95.087
G1 F1800 X107.605 Y90.532 E34.54724
G0 F15000 X108.17 Y90.532
G1 F1800 X112.16 Y94.522 E34.6111
G0 F15000 X112.16 Y93.956
G1 F1800 X108.736 Y90.532 E34.6659
G0 F15000 X109.302 Y90.532
G1 F1800 X112.16 Y93.39 E34.71165
G0 F15000 X112.16 Y92.825
G1 F1800 X109.868 Y90.532 E34.74834
G0 F15000 X110.433 Y90.532
G1 F1800 X112.16 Y92.259 E34.77598
G0 F15000 X112.16 Y91.693
G1 F1800 X110.999 Y90.532 E34.79456
G0 F15000 X111.565 Y90.532
G1 F1800 X112.16 Y91.128 E34.80409
G1 F1500 E28.30409
;MESH:NONMESH
G0 F600 X112.16 Y91.128 Z0.4
G0 F15000 X114.07 Y91.128
G0 X114.396 Y128.839
;TIME_ELAPSED:110.462329
;LAYER:1
;TYPE:SKIRT
G1 F1500 E34.80409
G1 F1800 X113.902 Y128.947 E34.81044
G1 X113.24 Y128.984 E34.81875
G1 X84.186 Y128.985 E35.1831
G1 X83.488 Y128.976 E35.19185
G1 X82.984 Y128.929 E35.1982
G1 X82.494 Y128.804 E35.20454
G1 X82.03 Y128.603 E35.21088
G1 X81.604 Y128.332 E35.21721
G1 X81.225 Y127.997 E35.22356
G1 X80.904 Y127.606 E35.2299
G1 X80.649 Y127.17 E35.23624
G1 X80.465 Y126.699 E35.24258
G1 X80.321 Y126.034 E35.25111
G1 X80.32 Y89.846 E35.70492
G1 X80.329 Y89.181 E35.71326
G1 X80.376 Y88.677 E35.71961
G1 X80.502 Y88.188 E35.72594
G1 X80.703 Y87.724 E35.73228
G1 X80.974 Y87.297 E35.73862
G1 X81.309 Y86.919 E35.74496
G1 X81.7 Y86.598 E35.7513
G1 X82.137 Y86.343 E35.75765
G1 X82.608 Y86.159 E35.76399
G1 X83.274 Y86.016 E35.77253
G1 X112.819 Y86.015 E36.14304
G1 X113.517 Y86.025 E36.15179
G1 X114.02 Y86.072 E36.15813
G1 X114.51 Y86.198 E36.16447
G1 X114.974 Y86.4 E36.17082
G1 X115.4 Y86.672 E36.17715
G1 X115.778 Y87.007 E36.18349
G1 X116.098 Y87.398 E36.18982
G1 X116.353 Y87.835 E36.19617
G1 X116.536 Y88.306 E36.20251
G1 X116.643 Y88.8 E36.20884
G1 X116.679 Y89.455 E36.21707
G1 X116.68 Y125.089 E36.66393
G1 X116.671 Y125.816 E36.67305
G1 X116.625 Y126.319 E36.67939
G1 X116.5 Y126.809 E36.68573
G1 X116.299 Y127.273 E36.69207
G1 X116.028 Y127.7 E36.69841
G1 X115.693 Y128.079 E36.70475
G1 X115.303 Y128.4 E36.71109
G1 X114.867 Y128.656 E36.71743
G1 X114.396 Y128.839 E36.72377
M204 S429
G1 F1500 E30.22377
;MESH:double_fingertip_enlarged_by_1_mm_xz(1).stl
G0 F15000 X113.056 Y126.575
G0 X113.28 Y125.584
;TYPE:WALL-OUTER
G1 F1500 E36.72377
G1 F2100 X113.28 Y89.412 E37.17738
G1 X83.72 Y89.412 E37.54807
G1 X83.72 Y125.584 E38.00168
G1 X113.28 Y125.584 E38.37237
M204 S1500
G0 F15000 X113.28 Y125.384
G0 X112.88 Y125.184
;TYPE:WALL-INNER
G1 F2700 X112.88 Y89.812 E38.81595
G1 X84.12 Y89.812 E39.17661
G1 X84.12 Y125.184 E39.62019
G1 X112.88 Y125.184 E39.98085
M204 S1000
G0 F15000 X112.56 Y124.864
;TYPE:SKIN
G1 F2100 X112.56 Y90.132 E40.39463
G1 X84.44 Y90.132 E40.72963
G1 X84.44 Y124.864 E41.1434
G1 X112.56 Y124.864 E41.47841
G0 F15000 X111.895 Y124.664
G1 F2100 X112.36 Y124.198 E41.48625
G0 F15000 X112.36 Y123.633
G1 F2100 X111.329 Y124.664 E41.50362
G0 F15000 X110.763 Y124.664
G1 F2100 X112.36 Y123.067 E41.53053
G0 F15000 X112.36 Y122.501
G1 F2100 X110.198 Y124.664 E41.56696
G0 F15000 X109.632 Y124.664
G1 F2100 X112.36 Y121.936 E41.61292
G0 F15000 X112.36 Y121.37
G1 F2100 X109.066 Y124.664 E41.66842
G0 F15000 X108.501 Y124.664
G1 F2100 X112.36 Y120.804 E41.73344
G0 F15000 X112.36 Y120.239
G1 F2100 X107.935 Y124.664 E41.808
G0 F15000 X107.369 Y124.664
G1 F2100 X112.36 Y119.673 E41.89209
G0 F15000 X112.36 Y119.107
G1 F2100 X106.804 Y124.664 E41.9857
G0 F15000 X106.238 Y124.664
G1 F2100 X112.36 Y118.542 E42.08885
G0 F15000 X112.36 Y117.976
G1 F2100 X105.672 Y124.664 E42.20152
G0 F15000 X105.107 Y124.664
G1 F2100 X112.36 Y117.41 E42.32373
G0 F15000 X112.36 Y116.844
G1 F2100 X104.541 Y124.664 E42.45548
G0 F15000 X103.975 Y124.664
G1 F2100 X112.36 Y116.279 E42.59675
G0 F15000 X112.36 Y115.713
G1 F2100 X103.41 Y124.664 E42.74754
G0 F15000 X102.844 Y124.664
G1 F2100 X112.36 Y115.147 E42.90788
G0 F15000 X112.36 Y114.582
G1 F2100 X102.278 Y124.664 E43.07774
G0 F15000 X101.712 Y124.664
G1 F2100 X112.36 Y114.016 E43.25714
G0 F15000 X112.36 Y113.45
G1 F2100 X101.147 Y124.664 E43.44606
G0 F15000 X100.581 Y124.664
G1 F2100 X112.36 Y112.885 E43.64452
G0 F15000 X112.36 Y112.319
G1 F2100 X100.015 Y124.664 E43.8525
G0 F15000 X99.45 Y124.664
G1 F2100 X112.36 Y111.753 E44.07002
G0 F15000 X112.36 Y111.188
G1 F2100 X98.884 Y124.664 E44.29707
G0 F15000 X98.318 Y124.664
G1 F2100 X112.36 Y110.622 E44.53365
G0 F15000 X112.36 Y110.056
G1 F2100 X97.753 Y124.664 E44.77975
G0 F15000 X97.187 Y124.664
G1 F2100 X112.36 Y109.491 E45.03539
G0 F15000 X112.36 Y108.925
G1 F2100 X96.621 Y124.664 E45.30056
G0 F15000 X96.056 Y124.664
G1 F2100 X112.36 Y108.359 E45.57526
G0 F15000 X112.36 Y107.793
G1 F2100 X95.49 Y124.664 E45.85949
G0 F15000 X94.924 Y124.664
G1 F2100 X112.36 Y107.228 E46.15325
G0 F15000 X112.36 Y106.662
G1 F2100 X94.359 Y124.664 E46.45654
G0 F15000 X93.793 Y124.664
G1 F2100 X112.36 Y106.096 E46.76937
G0 F15000 X112.36 Y105.531
G1 F2100 X93.227 Y124.664 E47.09172
G0 F15000 X92.662 Y124.664
G1 F2100 X112.36 Y104.965 E47.4236
G0 F15000 X112.36 Y104.399
G1 F2100 X92.096 Y124.664 E47.76502
G0 F15000 X91.53 Y124.664
G1 F2100 X112.36 Y103.834 E48.11596
G0 F15000 X112.36 Y103.268
G1 F2100 X90.964 Y124.664 E48.47645
G0 F15000 X90.399 Y124.664
G1 F2100 X112.36 Y102.702 E48.84645
G0 F15000 X112.36 Y102.137
G1 F2100 X89.833 Y124.664 E49.22599
G0 F15000 X89.267 Y124.664
G1 F2100 X112.36 Y101.571 E49.61506
G0 F15000 X112.36 Y101.005
G1 F2100 X88.702 Y124.664 E50.01366
G0 F15000 X88.136 Y124.664
G1 F2100 X112.36 Y100.44 E50.42179
G0 F15000 X112.36 Y99.874
G1 F2100 X87.57 Y124.664 E50.83945
G0 F15000 X87.005 Y124.664
G1 F2100 X112.36 Y99.308 E51.26664
